!!!OTL@@DE: Lang, lang ist's her!
!!!COM: Bayly, T.H.
!!!OMD: Sehr m&auml;ssig
!!!ONB: Englisches Lied "Long, Long Ago" Ged. u. Mel. von T.H. Bayly
!!!ONB: Deutsch von Wilhelm Weidling
!!!LDT: 1858
!!!OCL: Erk, Ludwig
!!!GCO: Deutscher Liederschatz, Band 1
**kern	**kern	**kern
*staff3	*staff2	*staff1
*Ipiano	*Ipiano	*Ivox
=1-	=1-	=1-
*clefF4	*clefG2	*clefG2
*k[f#]	*k[f#]	*k[f#]
*G:	*G:	*G:
*met(C)	*met(C)	*met(C)
*M4/4	*M4/4	*M4/4
*MM88	*MM88	*MM88
2GG/	(8B/L	4g/
.	8d/	.
.	8g/	8g/
.	8d/J)	8a/
2G\	(8B/L	4b\
.	8d/	.
.	8g/	8b\
.	8d/J)	8cc\
=2	=2	=2
2GG/ 2D/	(8B/L	4dd\
.	8d/	.
.	8g/	8ee\
.	8d/J)	8dd\
2G\	(8B/L	4.b\
.	8d/	.
.	8g/	.
.	8d/J)	8r
=3	=3	=3
2D\	(8c/L	4dd^\
.	8d/	.
.	8f#/	8cc\
.	8d/J)	8b\
2F#\	(8c/L	4.a/
.	8d/	.
.	8a/	.
.	8d/J)	8r
=4	=4	=4
2GG/ 2G/	8r	4cc\
.	(8d/L	.
.	8g/	8b\
.	8d/J)	8a/
2r	(8B/L	4.g/
.	8d/	.
.	8g/	.
.	8d/J)	8r
=5	=5	=5
2GG/ 2D/	(8B/L	4g/
.	8d/	.
.	8g/	8g/
.	8d/J)	8a/
2G\	(8B/L	4b\
.	8d/	.
.	8g/	8b\
.	8d/J)	8cc\
=6	=6	=6
2GG/ 2D/	(8B/L	4dd\
.	8d/	.
.	8g/	8ee\
.	8d/J)	8dd\
2G\	(8B/L	4.b\
.	8d/	.
.	8g/	.
.	8d/J)	8r
=7	=7	=7
2D\	(8c/L	4dd^\
.	8d/	.
.	8f#/	8cc\
.	8d/J)	8b\
2DD/	(8c/L	4a/
.	8d/	.
.	8f#/	8b\
.	8d/J)	8a/
=8	=8	=8
2GG/	(8B/L	2g/
.	8d/	.
.	8g/	.
.	8d/J	.
2r	8B/L	2r
.	8d/	.
.	8g/	.
.	8b/J)	.
=9	=9	=9
2DD/ 2D/	(8b/ 8dd/L	(8dd\L
.	8a/) 8cc/	8cc\J)
.	8a/ 8cc/	8cc\
.	8g/ 8b/J	8b\
2D\	(8f#/ 8a/L	4a/
.	8d/	.
.	8f#/ 8a/	8d/
.	8d/J)	8d/
=10	=10	=10
2GG/ 2D/	(8a/ 8cc/L	(8cc\L
.	8g/) 8b/	8b\J)
.	8g/ 8b/	8b\
.	8d/ 8a/J	8a/
2G\	(8B/ 8g/L	4g/
.	8d/	.
.	8g/ 8b/	4r
.	8d/J)	.
=11	=11	=11
2DD/ 2D/	(8b/ 8dd/L	(8dd\L
.	8a/) 8cc/	8cc\J)
.	8a/ 8cc/	8cc\
.	8g/ 8b/J	8b\
2D\	(8f#/ 8a/L	4a/
.	8d/	.
.	8f#/ 8a/	8d/
.	8d/J)	8d/
=12	=12	=12
*^	*	*
4G/	2GG\	(8a/ 8cc/L	(8cc\L
.	.	8g/) 8b/	8b\J)
4D/	.	8g/ 8b/	8b\
.	.	8d/ 8a/J	8a/
*v	*v	*	*
2GG/ 2G/	(8B/ 8g/L	4g/
.	8d/	.
.	8B/	4r
.	8d/J)	.
=13	=13	=13
*^	*	*
8GG/L	4GG\	4B/ (4g/	4g/
8D/	.	.	.
*v	*v	*	*
8G/	8B/ 8g/L	8g/
8D/J	8d/ 8a/J	8a/
*^	*	*
8GG/L	4GG\	4g/ 4b/	4b\
8D/	.	.	.
*v	*v	*	*
8G/	8g/ 8b/L	8b\
8D/J	8a/ 8cc/J	8cc\
=14	=14	=14
*^	*	*
8GG/L	2GG\	4b\ 4dd\	4dd\
8D/	.	.	.
8G/	.	8cc\ 8ee\L	8ee\
8D/J	.	8b\ 8dd\J	8dd\
8GG/L	4GG\	2g/ 2b/)	4.b\
8D/	.	.	.
8G/	4ryy	.	.
8D/J	.	.	8r
*v	*v	*	*
=15	=15	=15
(8GG#/L	(4fn/ 4dd/	4dd\
8BB/J	.	.
4E\)	8e/ 8cc/L	8cc\
.	8d/) 8b/J	8b\
4AA/	4c/ 4a/	4a/
*	*^	*
4DD/ 4D/	8b/L	4c\ 4f#\	8b\
.	8a/J	.	8a/
*	*v	*v	*
=16	=16	=16
2.GG/ 2.G/	(8B/ 8g/L	2g/
.	8d/	.
.	8g/	.
.	8d/J	.
.	4B/) 4g/	2r
4r	4r	.
==	==	==
*-	*-	*-
!!!ENC: Craig Stuart Sapp
!!!END: 2004/06/04/
!!!EFL: 086/651
